X: 1
T: Morag's
M: 4/4
L: 1/8
R: reel
K: Edor
|:EzEF GFGA|Beef gfed|BcdB A2FA|ABAF DEFD|
EDEF GFGA|Beef gfed|BcdB AFDE|1F2ED E4:|2F2ED E2 B2||
|:e2ef edBd|edef gfed|BcdB A2FA|1ABAF ABdf|
e2ef edBd|edef gfed|BcdB AFDE|F2ED E2 B2:|2ABAF DEFD|
EDEF GFGA|Beef gfed|BcdB AFDE|F2ED E4||
